outputs/icons/communication/comms_chat_new_round.svg

<svg xmlns="http://www.w3.org/2000/svg" width="1200" height="1200" fill="none"><path fill="#000" d="M151.251 572.22c0-260.799 212.386-472.22 474.374-472.22C887.615 100 1100 311.421 1100 572.22c0 260.805-212.385 472.225-474.375 472.225H151.24c-26.353 0-52.716-26.235-51.176-50.165l108.971-196.02c-36.849-67.165-57.784-144.22-57.784-226.04m474.374-393.517c-218.324 0-395.311 176.185-395.311 393.517 0 73.44 20.17 142.065 55.274 200.83a39.2 39.2 0 0 1 4.033 30.925L196.674 965.74h428.951c218.325 0 395.315-176.185 395.315-393.52 0-217.332-176.99-393.517-395.315-393.517"/><path fill="#000" d="M579.165 724.13c0 23.495 19.045 42.535 42.535 42.535 23.495 0 42.535-19.04 42.535-42.535V608.68H779.69c23.49 0 42.53-19.045 42.53-42.535s-19.04-42.535-42.53-42.535H664.235V420.313c0-23.492-19.04-42.535-42.535-42.535-23.49 0-42.535 19.043-42.535 42.535V523.61H475.868c-23.491 0-42.534 19.045-42.534 42.535s19.043 42.535 42.534 42.535h103.297z"/></svg>

<svg width="1200" height="1200" viewBox="0 0 1200 1200" fill="none" xmlns="http://www.w3.org/2000/svg"><path d="M151.251 572.22C151.251 311.421 363.637 100 625.625 100C887.615 100 1100 311.421 1100 572.22C1100 833.025 887.615 1044.445 625.625 1044.445C539.16 1044.445 414.792 1044.445 414.792 1044.445H151.24C124.887 1044.445 98.524 1018.21 100.064 994.28L209.035 798.26C172.186 731.095 151.251 654.04 151.251 572.22ZM625.625 178.703C407.301 178.703 230.314 354.888 230.314 572.22C230.314 645.66 250.484 714.285 285.588 773.05C291.154 782.36 292.612 793.555 289.621 803.975L196.674 965.74H414.792C414.792 965.74 547.775 965.74 625.625 965.74C843.95 965.74 1020.94 789.555 1020.94 572.22C1020.94 354.888 843.95 178.703 625.625 178.703Z" fill="#1D1E23"/><path d="M579.165 724.13C579.165 747.625 598.21 766.665 621.7 766.665C645.195 766.665 664.235 747.625 664.235 724.13V608.68H779.69C803.18 608.68 822.22 589.635 822.22 566.145C822.22 542.655 803.18 523.61 779.69 523.61H664.235V420.313C664.235 396.821 645.195 377.778 621.7 377.778C598.21 377.778 579.165 396.821 579.165 420.313V523.61H475.868C452.377 523.61 433.334 542.655 433.334 566.145C433.334 589.635 452.377 608.68 475.868 608.68H579.165V724.13Z" fill="#1D1E23"/></svg>
